X: 3362
T: Peas Strae.   a Reel.
O: Very Old.
%R: reel
B: Niel Gow & Sons "Complete Repository" v.3 p.36 #2
Z: 2021 John Chambers <jc:trillian.mit.edu>
N: 2nd strain has inital repeat but no final repeat; initial repeat dropped to match modern notation for 16 bars.
M: C
L: 1/8
K: D
% - - - - - - - - - -
V: 1 staves=2
e |\
~d>efd gefd | eA A/A/A =c2ce | ~defd gefd | eA A/A/A d2d :| f | afdf (a/g/f/e/) df | eA A/A/A ~=c2ce |
afdf (a/g/f/e/) d.f | eA A/A/A ~d2d>f || afdf (a/g/f/e/) d.f | e=c ge ~=c2c>e | a>fg>e f>de>c |.A(gf).e d2d |]
% - - - - - - - - - -
V: 2 clef=bass middle=d
z |\
d2d2 c2d2 | A2A2 =c2[c2=C2] | d2d2 c2d2 | A2A2 d2d :| z | d'2d'2 d'2d'2 | a2a2 =c'2c'2 |
d'2d'2 d'2d'2 | a2a2 d2d2 || d'2d'2 d'2d'2 | a2a2 =c'2c'2 | d2e2 f2g2 | a2A2 d2[dD] |]


